public/assets/images/key-primary.svg

<svg width="24" height="24" fill="none" xmlns="http://www.w3.org/2000/svg"><path d="M21 10h-8.35A5.99 5.99 0 007 6c-3.31 0-6 2.69-6 6s2.69 6 6 6a5.99 5.99 0 005.65-4H13l2 2 2-2 2 2 4-4.04L21 10zM7 15c-1.65 0-3-1.35-3-3s1.35-3 3-3 3 1.35 3 3-1.35 3-3 3z" fill="#1A00A6"/></svg>

<svg width="24" height="24" viewBox="0 0 24 24" fill="none" xmlns="http://www.w3.org/2000/svg">
<path d="M21 10H12.65C11.83 7.67 9.61 6 7 6C3.69 6 1 8.69 1 12C1 15.31 3.69 18 7 18C9.61 18 11.83 16.33 12.65 14H13L15 16L17 14L19 16L23 11.96L21 10ZM7 15C5.35 15 4 13.65 4 12C4 10.35 5.35 9 7 9C8.65 9 10 10.35 10 12C10 13.65 8.65 15 7 15Z" fill="#1A00A6"/>
</svg>
